logo.svg

<svg width="600" height="130" xmlns="http://www.w3.org/2000/svg"><g fill-rule="nonzero" fill="none"><g fill="#00144A"><path d="M558.042 86.466c0-3.376.902-5.473 2.531-5.473 1.63 0 3.303 3.134 3.897 9.91l.132 1.411-5.922.927a31.766 31.766 0 0 1-.638-6.775Zm19.99 15.228-.97-.839a11.324 11.324 0 0 1-7.925 3.31c-4.535 0-8.234-3.045-9.995-8.982h17.612c.124-.973.19-1.953.199-2.935 0-6.62-4.998-13.241-14.222-13.241a17.59 17.59 0 0 0-12.655 5.193 17.678 17.678 0 0 0-5.134 12.705c0 10.549 7.067 17.655 16.358 17.655 7.727 0 12.923-4.414 16.753-12.888l-.022.022Zm-39.122-9.777c2.4-7.106 4.403-9.114 6.297-9.644l.704-.199v-2.008c-3.78.331-7.58.331-11.36 0v2.008l.837.265c1.827.596 2.928 2.207.969 9.049l-3.039 10.813-4.645-13.925c-1.43-4.414-.44-5.34 1.123-5.937l.704-.265v-2.008c-6.89.331-14.948.331-21.75 0v2.008l.572.133c1.1.265 1.43.86 2.862 4.568l10.259 26.615a107.15 107.15 0 0 1 9.224 0l7.243-21.473Zm-48.807 10.042c0 8.01 0 9.114-1.497 9.379l-1.101.199v2.008a206.66 206.66 0 0 1 20.254 0v-2.008l-1.101-.2c-1.431-.264-1.497-1.367-1.497-9.378V92.91c0-3.376 0-9.71.264-13.241l-.638-.574a84.996 84.996 0 0 1-17.282 1.236v2.008l.594.133c2.004.463 2.004 1.898 2.004 12.116v7.37Zm15.586-32.42a8.102 8.102 0 0 0-4.688-7.752 8.065 8.065 0 0 0-8.925 1.464 8.113 8.113 0 0 0-1.98 8.846 8.08 8.08 0 0 0 7.448 5.144 7.628 7.628 0 0 0 5.658-2.074 7.667 7.667 0 0 0 2.4-5.54l.087-.088Zm-35.07 42.77c-4.601 0-8.806-4.171-12.659-9.82h-1.629c.132 3.376.132 6.377 0 9.29a34.184 34.184 0 0 0 13.21 2.803c9.994 0 16.159-4.039 16.159-11.321 0-6.113-4.403-9.578-8.807-11.851-5.966-3.068-9.356-5.209-9.356-7.879a2.21 2.21 0 0 1 .698-1.618 2.198 2.198 0 0 1 1.658-.589c4.028 0 8.497 5.208 11.161 9.313h1.63c-.199-2.803-.265-6.62-.265-8.342a20.218 20.218 0 0 0-11.294-3.244c-9.224 0-15.08 4.745-15.08 11.321 0 5.407 3.589 8.519 7.551 10.814 6.297 3.575 10.061 5.65 10.061 8.828 0 1.567-1.43 2.207-3.06 2.207l.022.088Zm-31.834-.088c-4.623 0-8.806-4.171-12.68-9.821h-1.608c.132 3.377.132 6.378 0 9.291a34.075 34.075 0 0 0 13.21 2.803c10.016 0 16.18-4.039 16.18-11.322 0-6.113-4.402-9.578-8.806-11.85-5.9-3.046-9.18-5.12-9.18-7.791a2.21 2.21 0 0 1 .69-1.61 2.198 2.198 0 0 1 1.644-.597c4.029 0 8.52 5.208 11.183 9.313h1.608c-.199-2.803-.265-6.62-.265-8.342a20.151 20.151 0 0 0-11.36-3.178c-9.224 0-15.058 4.745-15.058 11.322 0 5.407 3.567 8.518 7.53 10.813 6.296 3.576 10.06 5.65 10.06 8.828 0 1.567-1.43 2.207-3.038 2.207l-.11-.066Zm-36.347-25.755c0-3.376.903-5.473 2.532-5.473s3.302 3.134 3.896 9.91l.133 1.411-5.923.927a31.766 31.766 0 0 1-.638-6.775Zm19.99 15.228-.969-.839a11.324 11.324 0 0 1-7.925 3.31c-4.535 0-8.256-3.045-9.995-8.982h17.612c.124-.973.19-1.953.198-2.935 0-6.62-4.997-13.241-14.222-13.241a17.59 17.59 0 0 0-12.654 5.193 17.678 17.678 0 0 0-5.134 12.705c0 10.549 7.067 17.655 16.357 17.655 7.728 0 12.923-4.414 16.754-12.888l-.022.022Zm-45.638 9.82-1.167-.33c-2.906-.84-3.17-1.435-3.17-9.247V94.08a6.275 6.275 0 0 1 6.935-4.679c2.003.057 3.986.422 5.878 1.082l1.1-.662a7.008 7.008 0 0 0 1.366-4.414 5.747 5.747 0 0 0-1.411-4.453 5.718 5.718 0 0 0-4.247-1.925c-5.064 0-7.793 3.774-9.73 11.851 0-3.465.131-8.342.263-11.277l-.66-.574a84.864 84.864 0 0 1-17.282 1.236v2.008l.594.133c2.004.463 2.004 1.897 2.004 12.115v7.438c0 7.944.264 8.827-2.07 9.445l-.528.133v2.008a244.14 244.14 0 0 1 22.015 0l.11-2.03Zm-53.166 8.541a4.663 4.663 0 0 1 1.298-3.443c1.714.332 3.452.524 5.196.574 8.806.397 10.721 1.302 10.721 3.531 0 2.604-3.434 4.877-9.158 4.877-5.394 0-8.057-2.604-8.057-5.539Zm8.123-38.996c1.827 0 3.5 6.113 3.5 14.19 0 3.134-.506 4.635-1.43 4.635-1.806 0-3.5-6.003-3.5-14.19 0-3.2.528-4.635 1.43-4.635Zm20.915 33.104c0-6.202-5.9-8.828-16.82-9.247-8.806-.397-11.008-.993-11.008-2.737a1.987 1.987 0 0 1 .859-1.434 23.987 23.987 0 0 0 7.331 1.103c9.224 0 15.983-5.142 15.983-11.321 0-4.414-3.258-8.21-8.256-10.086a25.062 25.062 0 0 1 10.524-1.258l.396-1.103c.132-3.906-1.695-6.82-4.821-6.82-3.127 0-6.737 2.98-7.662 8.652a23.612 23.612 0 0 0-6.604-.905c-9.203 0-15.961 5.01-15.961 11.321 0 4.304 2.928 7.879 7.529 9.821-4.403 1.832-7.727 4.568-7.727 8.21 0 3.972 2.663 6.444 6.758 7.68-5.393.264-8.806 2.471-8.806 5.01 0 3.53 4.403 6.907 16.313 6.907 11.228 0 22.016-5.473 22.016-13.793h-.044Zm-53.806-9.512c0 4.745-.704 7.349-2.069 7.349-2.796 0-5.328-13.462-5.328-23.106 0-4.745.727-7.35 2.202-7.35 2.774 0 5.306 13.397 5.306 23.107h-.11Zm-22.411-7.746c0 10.218 7.067 17.655 18.449 17.655 10.633 0 19.153-6.753 19.153-17.898 0-10.218-7.023-17.655-18.383-17.655-10.655 0-19.219 6.753-19.219 17.898Zm-12.857 14.587-1.167-.33c-2.928-.84-3.192-1.435-3.192-9.248V94.08a6.275 6.275 0 0 1 6.957-4.679c2.03.033 4.043.383 5.966 1.038l1.1-.662a6.875 6.875 0 0 0 1.366-4.414 5.747 5.747 0 0 0-1.404-4.445 5.718 5.718 0 0 0-4.232-1.933c-5.086 0-7.794 3.774-9.753 11.85 0-3.464.132-8.341.264-11.276l-.66-.574a84.754 84.754 0 0 1-17.26 1.236v2.008l.572.132c2.026.464 2.026 1.898 2.026 12.116v7.482c0 7.944.242 8.827-2.092 9.445l-.506.133v2.008a244.14 244.14 0 0 1 22.015 0v-2.053Zm-48.191-40.077c3.764 0 7.463 6.62 7.463 12.778 0 4.944-2.334 9.357-7.463 9.755V71.415Zm4.403 39.99-1.1-.266c-2.951-.794-3.303-1.898-3.303-9.18v-5.473c15.058-.2 23.578-7.283 23.578-15.294s-5.592-12.315-19.814-12.315c-4.557 0-9.026.265-13.055.265-3.324 0-6.296 0-9.092-.265v2.03l1.1.2c1.432.242 1.498 1.301 1.498 9.312v21.672c0 7.879 0 8.982-1.497 9.247l-1.1.199v2.008c6.89-.331 15.784-.331 22.785 0v-2.14ZM423.859 11.41l-3.83.838v2.207h3.764V33.39c0 8.828 4.557 12.756 10.853 12.756 5.064 0 8.564-2.34 11.822-7.812l-.99-1.104a5.473 5.473 0 0 1-3.369 1.17c-2.201 0-3.236-1.434-3.236-5.782v-18.14h6.869v-2.605h-6.869V1.964l-1.629-.441c-3.765 4.81-7.287 8.518-13.385 9.887Zm-4.8 31.713-1.1-.199c-1.431-.265-1.497-1.368-1.497-9.38V22.07c0-8.475-5.13-11.388-10.391-11.388-4.653.03-8.9 2.662-11.008 6.82 0-2.207.132-4.547.198-6.246l-.638-.574a84.996 84.996 0 0 1-17.282 1.236v2.009l.594.132c2.003.463 2.003 1.898 2.003 12.116v7.37c0 8.012 0 9.115-1.497 9.38l-1.1.199v2.008a193.834 193.834 0 0 1 19.615 0v-2.008l-.528-.133c-1.607-.397-1.431-1.434-1.431-9.445V19.487a4.265 4.265 0 0 1 2.928-1.17c2.201 0 3.368 1.611 3.368 6.047v9.18c0 8.277-.242 9.115-1.409 9.446l-.528.133v2.008a193.834 193.834 0 0 1 19.615 0l.089-2.008Zm-63.117-25.07c0-3.377.903-5.474 2.532-5.474s3.302 3.134 3.896 9.91l.11 1.412-5.9.927c-.465-2.228-.68-4.5-.638-6.776Zm19.99 15.227-.969-.839a11.324 11.324 0 0 1-7.925 3.31c-4.558 0-8.256-3.045-9.995-8.981h17.612c.124-.974.19-1.954.198-2.936 0-6.62-4.997-13.24-14.222-13.24a17.59 17.59 0 0 0-12.654 5.192 17.678 17.678 0 0 0-5.134 12.705c0 10.549 7.067 17.655 16.357 17.655 7.727 0 12.923-4.414 16.754-12.888l-.022.022ZM325.56 43.873c-4.623 0-8.806-4.17-12.659-9.82h-1.629c.132 3.376.132 6.377 0 9.29a34.184 34.184 0 0 0 13.21 2.803c9.994 0 16.158-4.038 16.158-11.321 0-6.113-4.403-9.578-8.806-11.851-5.966-3.068-9.356-5.208-9.356-7.879a2.21 2.21 0 0 1 .69-1.61 2.198 2.198 0 0 1 1.643-.597c4.03 0 8.52 5.209 11.184 9.313h1.63c-.199-2.802-.265-6.62-.265-8.342a20.217 20.217 0 0 0-11.36-3.178c-9.224 0-15.08 4.745-15.08 11.322 0 5.407 3.566 8.518 7.529 10.814 6.296 3.575 10.083 5.65 10.083 8.827 0 1.567-1.431 2.207-3.06 2.207l.088.022Zm-36.391-25.82c0-3.377.902-5.474 2.532-5.474 1.629 0 3.302 3.134 3.896 9.91l.132 1.412-5.922.927a31.766 31.766 0 0 1-.638-6.776Zm20.012 15.227-.97-.839a11.324 11.324 0 0 1-7.925 3.31c-4.535 0-8.233-3.045-9.994-8.981h17.612c.11-1.038.176-2.207.176-2.936 0-6.62-4.998-13.24-14.222-13.24a17.59 17.59 0 0 0-12.655 5.192 17.678 17.678 0 0 0-5.133 12.705c0 10.549 7.089 17.655 16.357 17.655 7.727 0 12.923-4.414 16.776-12.888l-.022.022Zm-45.66 9.843-1.167-.331c-2.928-.839-3.192-1.435-3.192-9.247v-7.879a6.275 6.275 0 0 1 6.957-4.678c2.03.033 4.043.383 5.966 1.037l1.1-.662a6.875 6.875 0 0 0 1.366-4.414 5.747 5.747 0 0 0-1.404-4.445 5.718 5.718 0 0 0-4.232-1.933c-5.086 0-7.794 3.774-9.753 11.851 0-3.465.132-8.342.264-11.277l-.66-.574a84.754 84.754 0 0 1-17.26 1.236v2.008l.572.133c2.026.463 2.026 1.898 2.026 12.115v7.482c0 7.945.242 8.827-2.092 9.445l-.506.133v2.008a244.141 244.141 0 0 1 22.015 0v-2.008ZM215.397 3c3.764 0 7.463 6.621 7.463 12.778 0 4.944-2.334 9.358-7.463 9.755V3Zm4.403 39.99-1.1-.265c-2.951-.795-3.303-1.898-3.303-9.181v-5.473c15.058-.199 23.578-7.283 23.578-15.294S233.361.463 219.227.463c-4.557 0-9.026.265-13.055.265-3.324 0-6.296 0-9.092-.265v2.03l1.1.2c1.432.242 1.498 1.301 1.498 9.313v21.671c0 7.879 0 8.982-1.497 9.247l-1.1.199v2.008c6.89-.331 15.784-.331 22.785 0l-.066-2.14Z"/></g><path fill="#00144A" d="m172.005 57.048-37.822-21.892v16.42H99.839V62.52h34.344v16.42zM49.93 35.156c-9.957-.003-18.652 6.753-21.134 16.42H0V62.61h28.796c2.838 11.017 13.621 18.018 24.81 16.108 11.19-1.91 19.055-12.093 18.097-23.43-.96-11.338-10.422-20.05-21.773-20.044"/><path d="M106.091 57.048C106.055 25.971 80.932.787 49.931.75H38.922v11.035H49.93c24.987 0 45.242 20.304 45.242 45.352 0 25.047-20.255 45.351-45.242 45.351h-5.063v23.305h10.171v-12.69c28.925-2.644 51.08-26.939 51.12-56.055" fill="#FA6D6F"/></g></svg>

<?xml version="1.0" encoding="UTF-8" standalone="no"?>
<!DOCTYPE svg PUBLIC "-//W3C//DTD SVG 1.1//EN" "http://www.w3.org/Graphics/SVG/1.1/DTD/svg11.dtd">
<svg width="100%" height="100%" viewBox="0 0 300 65" version="1.1" xmlns="http://www.w3.org/2000/svg" xmlns:xlink="http://www.w3.org/1999/xlink" xml:space="preserve" xmlns:serif="http://www.serif.com/" style="fill-rule:evenodd;clip-rule:evenodd;stroke-linejoin:round;stroke-miterlimit:2;">
    <g transform="matrix(0.5,0,0,0.5,0,0)">
        <g>
            <path d="M558.042,86.466C558.042,83.09 558.944,80.993 560.573,80.993C562.203,80.993 563.876,84.127 564.47,90.903L564.602,92.314L558.68,93.241C558.225,91.012 558.011,88.741 558.042,86.466ZM578.032,101.694L577.062,100.855C574.958,102.955 572.11,104.145 569.137,104.165C564.602,104.165 560.903,101.12 559.142,95.183L576.754,95.183C576.878,94.21 576.944,93.23 576.953,92.248C576.953,85.628 571.955,79.007 562.731,79.007C557.987,78.96 553.42,80.834 550.076,84.2C546.727,87.571 544.876,92.154 544.942,96.905C544.942,107.454 552.009,114.56 561.3,114.56C569.027,114.56 574.223,110.146 578.053,101.672L578.031,101.694L578.032,101.694ZM538.91,91.917C541.31,84.811 543.313,82.803 545.207,82.273L545.911,82.074L545.911,80.066C542.131,80.397 538.331,80.397 534.551,80.066L534.551,82.074L535.388,82.339C537.215,82.935 538.316,84.546 536.357,91.388L533.318,102.201L528.673,88.276C527.243,83.862 528.233,82.936 529.796,82.339L530.5,82.074L530.5,80.066C523.61,80.397 515.552,80.397 508.75,80.066L508.75,82.074L509.322,82.207C510.422,82.472 510.752,83.067 512.184,86.775L522.443,113.39C525.516,113.258 528.594,113.258 531.667,113.39L538.91,91.917ZM490.103,101.959C490.103,109.969 490.103,111.073 488.606,111.338L487.505,111.537L487.505,113.545C494.252,113.214 501.012,113.214 507.759,113.545L507.759,111.537L506.658,111.337C505.227,111.073 505.161,109.97 505.161,101.959L505.161,92.91C505.161,89.534 505.161,83.2 505.425,79.669L504.787,79.095C499.083,80.095 493.293,80.509 487.505,80.331L487.505,82.339L488.099,82.472C490.103,82.935 490.103,84.37 490.103,94.588L490.103,101.959ZM505.689,69.539C505.852,66.248 503.991,63.171 501.001,61.787C498.013,60.407 494.467,60.989 492.076,63.251C489.682,65.517 488.896,69.027 490.096,72.097C491.293,75.165 494.251,77.208 497.544,77.241C499.634,77.355 501.681,76.605 503.202,75.167C504.725,73.727 505.593,71.723 505.602,69.627L505.689,69.539ZM470.619,112.309C466.018,112.309 461.813,108.138 457.96,102.489L456.331,102.489C456.463,105.865 456.463,108.866 456.331,111.779C460.504,113.582 464.995,114.535 469.541,114.582C479.535,114.582 485.7,110.543 485.7,103.261C485.7,97.148 481.297,93.683 476.893,91.41C470.927,88.342 467.537,86.201 467.537,83.531C467.535,82.919 467.788,82.332 468.235,81.913C468.681,81.495 469.283,81.281 469.893,81.324C473.921,81.324 478.39,86.532 481.054,90.637L482.684,90.637C482.485,87.834 482.419,84.017 482.419,82.295C479.059,80.12 475.127,78.99 471.125,79.051C461.901,79.051 456.045,83.796 456.045,90.372C456.045,95.779 459.634,98.891 463.596,101.186C469.893,104.761 473.657,106.836 473.657,110.014C473.657,111.581 472.227,112.221 470.597,112.221L470.619,112.309ZM438.785,112.221C434.162,112.221 429.979,108.05 426.105,102.4L424.497,102.4C424.629,105.777 424.629,108.778 424.497,111.691C428.669,113.497 433.161,114.45 437.707,114.494C447.723,114.494 453.887,110.455 453.887,103.172C453.887,97.059 449.485,93.594 445.081,91.322C439.181,88.276 435.901,86.202 435.901,83.531C435.899,82.922 436.149,82.34 436.591,81.921C437.033,81.503 437.628,81.287 438.235,81.324C442.264,81.324 446.755,86.532 449.418,90.637L451.026,90.637C450.827,87.834 450.761,84.017 450.761,82.295C447.377,80.127 443.419,79.019 439.401,79.117C430.177,79.117 424.343,83.862 424.343,90.439C424.343,95.846 427.91,98.957 431.873,101.252C438.169,104.828 441.933,106.902 441.933,110.08C441.933,111.647 440.503,112.287 438.895,112.287L438.785,112.221ZM402.438,86.466C402.438,83.09 403.341,80.993 404.97,80.993C406.599,80.993 408.272,84.127 408.866,90.903L408.999,92.314L403.076,93.241C402.621,91.012 402.407,88.741 402.438,86.466ZM422.428,101.694L421.459,100.855C419.355,102.955 416.507,104.145 413.534,104.165C408.999,104.165 405.278,101.12 403.539,95.183L421.151,95.183C421.275,94.21 421.341,93.23 421.349,92.248C421.349,85.628 416.352,79.007 407.127,79.007C402.383,78.96 397.816,80.834 394.473,84.2C391.124,87.571 389.273,92.154 389.339,96.905C389.339,107.454 396.406,114.56 405.696,114.56C413.424,114.56 418.619,110.146 422.45,101.672L422.428,101.694ZM376.79,111.514L375.623,111.184C372.717,110.344 372.453,109.749 372.453,101.937L372.453,94.08C373.232,90.997 376.238,88.97 379.388,89.401C381.391,89.458 383.374,89.823 385.266,90.483L386.366,89.821C387.307,88.547 387.789,86.99 387.732,85.407C387.913,83.791 387.4,82.171 386.321,80.954C385.244,79.739 383.698,79.038 382.074,79.029C377.01,79.029 374.281,82.803 372.344,90.88C372.344,87.415 372.475,82.538 372.607,79.603L371.947,79.029C366.244,80.03 360.453,80.444 354.665,80.265L354.665,82.273L355.259,82.406C357.263,82.869 357.263,84.303 357.263,94.521L357.263,101.959C357.263,109.903 357.527,110.786 355.193,111.404L354.665,111.537L354.665,113.545C362,113.214 369.345,113.214 376.68,113.545L376.79,111.515L376.79,111.514ZM323.624,120.055C323.566,118.778 324.036,117.533 324.922,116.612C326.636,116.944 328.374,117.136 330.118,117.186C338.924,117.583 340.839,118.488 340.839,120.717C340.839,123.321 337.405,125.594 331.681,125.594C326.287,125.594 323.624,122.99 323.624,120.055ZM331.747,81.059C333.574,81.059 335.247,87.172 335.247,95.249C335.247,98.383 334.741,99.884 333.817,99.884C332.011,99.884 330.317,93.881 330.317,85.694C330.317,82.494 330.845,81.059 331.747,81.059ZM352.662,114.163C352.662,107.961 346.762,105.335 335.842,104.916C327.036,104.519 324.834,103.923 324.834,102.179C324.896,101.598 325.21,101.073 325.693,100.745C328.065,101.49 330.538,101.862 333.024,101.848C342.248,101.848 349.007,96.706 349.007,90.527C349.007,86.113 345.749,82.317 340.751,80.441C344.129,79.276 347.718,78.847 351.275,79.183L351.671,78.08C351.803,74.174 349.976,71.26 346.85,71.26C343.723,71.26 340.113,74.24 339.188,79.912C337.041,79.3 334.817,78.995 332.584,79.007C323.381,79.007 316.623,84.017 316.623,90.328C316.623,94.632 319.551,98.207 324.152,100.149C319.749,101.981 316.425,104.717 316.425,108.359C316.425,112.331 319.088,114.803 323.183,116.039C317.79,116.303 314.377,118.51 314.377,121.049C314.377,124.579 318.78,127.956 330.69,127.956C341.918,127.956 352.706,122.483 352.706,114.163L352.662,114.163ZM298.856,104.651C298.856,109.396 298.152,112 296.787,112C293.991,112 291.459,98.538 291.459,88.894C291.459,84.149 292.186,81.544 293.661,81.544C296.435,81.544 298.967,94.941 298.967,104.651L298.856,104.651ZM276.445,96.905C276.445,107.123 283.512,114.56 294.894,114.56C305.527,114.56 314.047,107.807 314.047,96.662C314.047,86.444 307.024,79.007 295.664,79.007C285.009,79.007 276.445,85.76 276.445,96.905ZM263.588,111.492L262.421,111.162C259.493,110.322 259.229,109.727 259.229,101.914L259.229,94.08C260.009,90.988 263.028,88.958 266.186,89.401C268.216,89.434 270.229,89.784 272.152,90.439L273.252,89.777C274.203,88.508 274.686,86.948 274.618,85.363C274.799,83.75 274.288,82.134 273.214,80.918C272.142,79.704 270.602,79 268.982,78.985C263.896,78.985 261.188,82.759 259.229,90.835C259.229,87.371 259.361,82.494 259.493,79.559L258.833,78.985C253.137,79.985 247.353,80.399 241.573,80.221L241.573,82.229L242.145,82.361C244.171,82.825 244.171,84.259 244.171,94.477L244.171,101.959C244.171,109.903 244.413,110.786 242.079,111.404L241.573,111.537L241.573,113.545C248.908,113.214 256.253,113.214 263.588,113.545L263.588,111.492ZM215.397,71.415C219.161,71.415 222.86,78.035 222.86,84.193C222.86,89.137 220.526,93.55 215.397,93.948L215.397,71.415ZM219.8,111.405L218.7,111.139C215.749,110.345 215.397,109.241 215.397,101.959L215.397,96.486C230.455,96.286 238.975,89.203 238.975,81.192C238.975,73.181 233.383,68.877 219.161,68.877C214.604,68.877 210.135,69.142 206.106,69.142C202.782,69.142 199.81,69.142 197.014,68.877L197.014,70.907L198.114,71.107C199.546,71.349 199.612,72.408 199.612,80.419L199.612,102.091C199.612,109.97 199.612,111.073 198.115,111.338L197.015,111.537L197.015,113.545C203.905,113.214 212.799,113.214 219.8,113.545L219.8,111.405ZM423.859,11.41L420.029,12.248L420.029,14.455L423.793,14.455L423.793,33.39C423.793,42.218 428.35,46.146 434.646,46.146C439.71,46.146 443.21,43.806 446.468,38.334L445.478,37.23C444.517,37.985 443.331,38.397 442.109,38.4C439.908,38.4 438.873,36.966 438.873,32.618L438.873,14.478L445.742,14.478L445.742,11.873L438.873,11.873L438.873,1.964L437.244,1.523C433.479,6.333 429.957,10.041 423.859,11.41ZM419.059,43.123L417.959,42.924C416.528,42.659 416.462,41.556 416.462,33.544L416.462,22.07C416.462,13.595 411.332,10.682 406.071,10.682C401.418,10.712 397.171,13.344 395.063,17.502C395.063,15.295 395.195,12.955 395.261,11.256L394.623,10.682C388.919,11.682 383.129,12.096 377.341,11.918L377.341,13.927L377.935,14.059C379.938,14.522 379.938,15.957 379.938,26.175L379.938,33.545C379.938,41.557 379.938,42.66 378.441,42.925L377.341,43.124L377.341,45.132C383.875,44.801 390.422,44.801 396.956,45.132L396.956,43.124L396.428,42.991C394.821,42.594 394.997,41.557 394.997,33.546L394.997,19.487C395.787,18.738 396.836,18.319 397.925,18.317C400.126,18.317 401.293,19.928 401.293,24.364L401.293,33.544C401.293,41.821 401.051,42.659 399.884,42.99L399.356,43.123L399.356,45.131C405.89,44.8 412.437,44.8 418.971,45.131L419.06,43.123L419.059,43.123ZM355.942,18.053C355.942,14.676 356.845,12.579 358.474,12.579C360.103,12.579 361.776,15.713 362.37,22.489L362.48,23.901L356.58,24.828C356.115,22.6 355.9,20.328 355.942,18.052L355.942,18.053ZM375.932,33.28L374.963,32.441C372.859,34.541 370.011,35.731 367.038,35.751C362.48,35.751 358.782,32.706 357.043,26.77L374.655,26.77C374.779,25.796 374.845,24.816 374.853,23.834C374.853,17.214 369.856,10.594 360.631,10.594C355.887,10.547 351.32,12.421 347.977,15.786C344.628,19.157 342.777,23.74 342.843,28.491C342.843,39.04 349.91,46.146 359.2,46.146C366.927,46.146 372.123,41.732 375.954,33.258L375.932,33.28ZM325.56,43.873C320.937,43.873 316.754,39.703 312.901,34.053L311.272,34.053C311.404,37.429 311.404,40.43 311.272,43.343C315.445,45.146 319.936,46.099 324.482,46.146C334.476,46.146 340.64,42.108 340.64,34.825C340.64,28.712 336.237,25.247 331.834,22.974C325.868,19.906 322.478,17.766 322.478,15.095C322.476,14.486 322.726,13.904 323.168,13.485C323.609,13.068 324.205,12.851 324.811,12.888C328.841,12.888 333.331,18.097 335.995,22.201L337.625,22.201C337.426,19.399 337.36,15.581 337.36,13.859C333.974,11.694 330.018,10.588 326,10.681C316.776,10.681 310.92,15.426 310.92,22.003C310.92,27.41 314.486,30.521 318.449,32.817C324.745,36.392 328.532,38.467 328.532,41.644C328.532,43.211 327.101,43.851 325.472,43.851L325.56,43.873ZM289.169,18.053C289.169,14.676 290.071,12.579 291.701,12.579C293.33,12.579 295.003,15.713 295.597,22.489L295.729,23.901L289.807,24.828C289.352,22.599 289.138,20.327 289.169,18.052L289.169,18.053ZM309.181,33.28L308.211,32.441C306.107,34.541 303.259,35.731 300.286,35.751C295.751,35.751 292.053,32.706 290.292,26.77L307.904,26.77C308.014,25.732 308.08,24.563 308.08,23.834C308.08,17.214 303.082,10.594 293.858,10.594C289.114,10.546 284.547,12.42 281.203,15.786C277.855,19.157 276.003,23.74 276.07,28.491C276.07,39.04 283.159,46.146 292.427,46.146C300.154,46.146 305.35,41.732 309.203,33.258L309.181,33.28ZM263.521,43.123L262.354,42.792C259.426,41.953 259.162,41.357 259.162,33.545L259.162,25.666C259.942,22.574 262.961,20.544 266.119,20.988C268.149,21.021 270.162,21.371 272.085,22.025L273.185,21.363C274.136,20.094 274.619,18.534 274.551,16.949C274.732,15.336 274.221,13.72 273.147,12.504C272.075,11.29 270.535,10.586 268.915,10.571C263.829,10.571 261.121,14.345 259.162,22.422C259.162,18.957 259.294,14.08 259.426,11.145L258.766,10.571C253.07,11.571 247.286,11.985 241.506,11.807L241.506,13.815L242.078,13.948C244.104,14.411 244.104,15.846 244.104,26.063L244.104,33.545C244.104,41.49 244.346,42.372 242.012,42.99L241.506,43.123L241.506,45.131C248.841,44.8 256.186,44.8 263.521,45.131L263.521,43.123ZM215.397,3C219.161,3 222.86,9.621 222.86,15.778C222.86,20.722 220.526,25.136 215.397,25.533L215.397,3ZM219.8,42.99L218.7,42.725C215.749,41.93 215.397,40.827 215.397,33.544L215.397,28.071C230.455,27.872 238.975,20.788 238.975,12.777C238.975,4.766 233.361,0.463 219.227,0.463C214.67,0.463 210.201,0.728 206.172,0.728C202.848,0.728 199.876,0.728 197.08,0.463L197.08,2.493L198.18,2.693C199.612,2.935 199.678,3.994 199.678,12.006L199.678,33.677C199.678,41.556 199.678,42.659 198.181,42.924L197.081,43.123L197.081,45.131C203.971,44.8 212.865,44.8 219.866,45.131L219.8,42.991L219.8,42.99Z" style="fill:rgb(0,20,74);fill-rule:nonzero;"/>
        </g>
        <path d="M172.005,57.048L134.183,35.156L134.183,51.576L99.839,51.576L99.839,62.52L134.183,62.52L134.183,78.94L172.005,57.048ZM49.93,35.156C39.973,35.153 31.278,41.909 28.796,51.576L0,51.576L0,62.61L28.796,62.61C31.634,73.627 42.417,80.628 53.606,78.718C64.796,76.808 72.661,66.625 71.703,55.288C70.743,43.95 61.281,35.238 49.93,35.244" style="fill:rgb(0,20,74);fill-rule:nonzero;"/>
        <path d="M106.091,57.048C106.055,25.971 80.932,0.787 49.931,0.75L38.922,0.75L38.922,11.785L49.93,11.785C74.917,11.785 95.172,32.089 95.172,57.137C95.172,82.184 74.917,102.488 49.93,102.488L44.867,102.488L44.867,125.793L55.038,125.793L55.038,113.103C83.963,110.459 106.118,86.164 106.158,57.048" style="fill:rgb(250,109,111);fill-rule:nonzero;"/>
    </g>
</svg>
